X: 100364
T: MISS HAMILTON'S STRATHSPEY
R: strathspey
B: K\"ohler's Violin Repository, v.3, 1885 p.246 #1
F: http://www.archive.org/details/klersviolinrepos03rugg
Z: 2012 John Chambers <jc:trillian.mit.edu>
M: C|
L: 1/8
K: F
(c/B/) |\
(A>F)(C>F) (A,>F)(C>F) | (.B>.c) (d/c/)B/A/ B<G G(c/B/) |\
(A>F)(C>F) (A,>F)(A>F) | (B>d) (G>c) A<F F(c/B/) |
(A>F) (C>F) (A,>F) (C>F) | (.B>.c) (d/c/)B/A/ B<GG>B |\
(.A>.c) (f>e) (.d>.B) (G>B) | (A/B/c) (G>B) A<FF :|
|: uc |\
(f>a) (c>f) (Af)(c>A) | G<gg>f e<cc>e |\
(f>a) (c>A) (B>f) (B>G) | (A/B/c) (G>B) A<FF>c |
(f>a) (c>f) (A>f) (c>A) | (B>g) (A>f) g<GG>B |\
(3AFA (3cAc (3fed (3cBA | (3Bcd (3GAB "^Segue Reel."A<FF :|

%%sep 2 1 500

